X:1
T:Swing mode F
M:4/4
L: 1/8
V:1
V:2 clef=bass
K:C
[V:1] FGAB cdef | edcB AG F2 | FGAB cdef | edcB AG F2 :|
[V:2] [F,A,CE]8 | [F,A,CE]8 | [F,A,CE]8 | [F,A,CE]8 :|